build/img/benefits/vectors/like.svg

<svg width="36" height="36" viewBox="0 0 36 36" fill="none" xmlns="http://www.w3.org/2000/svg">
<path d="M32.3399 16.11L30.2999 13.74C29.9099 13.29 29.5949 12.45 29.5949 11.85V9.29997C29.5949 7.70997 28.2899 6.40497 26.6999 6.40497H24.1499C23.5649 6.40497 22.7099 6.08997 22.2599 5.69997L19.8899 3.65997C18.8549 2.77497 17.1599 2.77497 16.1099 3.65997L13.7549 5.71497C13.3049 6.08997 12.4499 6.40497 11.8649 6.40497H9.26995C7.67995 6.40497 6.37495 7.70997 6.37495 9.29997V11.865C6.37495 12.45 6.05995 13.29 5.68495 13.74L3.65995 16.125C2.78995 17.16 2.78995 18.84 3.65995 19.875L5.68495 22.26C6.05995 22.71 6.37495 23.55 6.37495 24.135V26.7C6.37495 28.29 7.67995 29.595 9.26995 29.595H11.8649C12.4499 29.595 13.3049 29.91 13.7549 30.3L16.1249 32.34C17.1599 33.225 18.8549 33.225 19.9049 32.34L22.2749 30.3C22.7249 29.91 23.5649 29.595 24.1649 29.595H26.7149C28.3049 29.595 29.6099 28.29 29.6099 26.7V24.15C29.6099 23.565 29.9249 22.71 30.3149 22.26L32.3549 19.89C33.2249 18.855 33.2249 17.145 32.3399 16.11ZM25.0199 18L23.2649 23.34C23.0399 24.225 22.0949 24.945 21.1349 24.945H18.3599C17.8799 24.945 17.2049 24.78 16.9049 24.48L14.6999 22.755C14.6549 23.715 14.2199 24.12 13.1549 24.12H12.4349C11.3249 24.12 10.8749 23.685 10.8749 22.635V15.465C10.8749 14.415 11.3249 13.98 12.4349 13.98H13.1699C14.2799 13.98 14.7299 14.415 14.7299 15.465V16.005L17.6399 11.685C17.9399 11.22 18.7049 10.89 19.3499 11.145C20.0549 11.385 20.5049 12.165 20.3549 12.855L19.9949 15.195C19.9649 15.405 20.0099 15.6 20.1449 15.75C20.2649 15.885 20.4449 15.975 20.6399 15.975H23.5649C24.1349 15.975 24.6149 16.2 24.8999 16.605C25.1549 16.995 25.1999 17.49 25.0199 18Z" fill="#B0CB1F"/>
</svg>

<svg width="36" height="36" fill="none" xmlns="http://www.w3.org/2000/svg"><path d="m32.34 16.11-2.04-2.37c-.39-.45-.705-1.29-.705-1.89V9.3A2.906 2.906 0 0 0 26.7 6.405h-2.55c-.585 0-1.44-.315-1.89-.705l-2.37-2.04c-1.035-.885-2.73-.885-3.78 0l-2.355 2.055c-.45.375-1.305.69-1.89.69H9.27A2.906 2.906 0 0 0 6.375 9.3v2.565c0 .585-.315 1.425-.69 1.875L3.66 16.125c-.87 1.035-.87 2.715 0 3.75l2.025 2.385c.375.45.69 1.29.69 1.875V26.7a2.906 2.906 0 0 0 2.895 2.895h2.595c.585 0 1.44.315 1.89.705l2.37 2.04c1.035.885 2.73.885 3.78 0l2.37-2.04c.45-.39 1.29-.705 1.89-.705h2.55A2.906 2.906 0 0 0 29.61 26.7v-2.55c0-.585.315-1.44.705-1.89l2.04-2.37c.87-1.035.87-2.745-.015-3.78ZM25.02 18l-1.755 5.34c-.225.885-1.17 1.605-2.13 1.605H18.36c-.48 0-1.155-.165-1.455-.465L14.7 22.755c-.045.96-.48 1.365-1.545 1.365h-.72c-1.11 0-1.56-.435-1.56-1.485v-7.17c0-1.05.45-1.485 1.56-1.485h.735c1.11 0 1.56.435 1.56 1.485v.54l2.91-4.32c.3-.465 1.065-.795 1.71-.54.705.24 1.155 1.02 1.005 1.71l-.36 2.34c-.03.21.015.405.15.555.12.135.3.225.495.225h2.925c.57 0 1.05.225 1.335.63.255.39.3.885.12 1.395Z" fill="#B0CB1F"/></svg>
